X:1
T:Father, Make Us Loving
T:Father, Make Us Loving
T:Isaac Hickman Meredith
T:Flora Kirkland, 1901
T:Public Domain Courtesy of the Cyber Hymnal™
T:Public Domain Courtesy of the Cyber Hymnal™
C:Isaac Hickman Meredith
Z:Public Domain
Z:Courtesy of the Cyber Hymnal™
%%score ( 1 2 ) 3
L:1/8
M:4/4
K:Eb
V:1 treble 
V:2 treble 
V:3 bass 
V:1
"^Prayerfully" [EG]2 [EG]2 [EA]2 [EG]2 | [CG]4 [CF]4 | [B,E]2 [B,D]2 [B,E]2 [DF]2 | [EG]6 z2 | %4
w: 1.~Fa- ther, make us|lov- ing,|gen- tle, thought- ful,|kind;|
w: 2.~Fa- ther, we would|ev- er,|live as in Thy|sight;|
w: 3.~Help us to re-|mem- ber,|Thou art ev- er|near;|
 [EG]2 [EG]2 [EA]2 [EG]2 | [CG]4 [CF]4 | [B,E]2 [B,D]2 [DG]2 [DF]2 | E6 z2 | %8
w: Fill us with Thy|Spir- it,|make us of Thy|mind.|
w: Thou dost know our|long- ings|af- ter what is|right.|
w: Teach us lov- ing-|kind- ness,|ten- der- ness and|cheer.|
 [DF]2 [DB]2 [E=A]2 [Ec]2 | [FB]4 [DF]4 | [E=A]2 [EG]2 [CF]2 [CE]2 | [B,D]6 z2 | %12
w: Help us love each|o- ther,|more and more each|day,|
w: Fill our hearts with|kind- ness|as we on- ward|go,|
w: There is much of|sor- row,|in this world be-|low;|
 [DF]2 [DB]2 [E=A]2 [Fc]2 | [FB]4 [EG]4 | [DF]2 [FB]2 [Ec]2 [E=A]2 | ([DB]4 [FA]4) || %16
w: Help us fol- low|Je- sus,|in the nar- row|way. *|
w: Teach us to be|lov- ing,|Thou hast loved us|so. *|
w: Fa- ther, make us|lov- ing,|Thou hast loved us|so. *|
"^Refrain" [EG]2 [EG]2 [EA]2 [EG]2 | [CG]4 [CF]4 | [B,E]2 [B,D]2 [B,E]2 [DF]2 | [EG]6 z2 | %20
w: ||||
w: ||||
w: ||||
 [EG]2 [EG]2 [EA]2 [EG]2 | [CG]4 [CF]4 | [B,E]2 [B,D]2 [DG]2 [DF]2 | E6 z2 |] %24
w: ||||
w: ||||
w: ||||
V:2
 x8 | x8 | x8 | x8 | x8 | x8 | x8 | E6 x2 | x8 | x8 | x8 | x8 | x8 | x8 | x8 | x8 || x8 | x8 | x8 | %19
 x8 | x8 | x8 | x8 | E6 x2 |] %24
V:3
 [E,B,]2 [E,B,]2 [E,C]2 [E,B,]2 | [A,,B,]4 [A,,A,]4 | [B,,G,]2 [B,,F,]2 [B,,G,]2 [B,,B,]2 | %3
w: ~ ~ ~ ~|~ ~|~ ~ ~ ~|
 [E,B,]6 z2 | [E,B,]2 [E,B,]2 [E,C]2 [E,B,]2 | [A,,B,]4 [A,,A,]4 | %6
w: ~|~ ~ ~ ~|~ ~|
 [B,,G,]2 [B,,F,]2 [B,,B,]2 [B,,A,]2 | [E,G,]6 z2 | [B,,B,]2 [B,,F,]2 [C,F,]2 [E,=A,]2 | %9
w: ~ ~ ~ ~|~|~ ~ ~ ~|
 [D,B,]4 [B,,B,]4 | [F,C]2 [F,B,]2 [F,=A,]2 F,2 | [B,,F,]6 z2 | %12
w: ~ ~|~ ~ ~ ~|~|
 [B,,B,]2 [B,,F,]2 [C,F,]2 [E,=A,]2 | [D,B,]4 [E,B,]4 | [F,B,]2 [F,D]2 [F,=A,]2 [F,C]2 | %15
w: ~ ~ ~ ~|~ ~|~ ~ ~ ~|
 [B,,B,]8 || [E,B,]2 [E,B,]2 [E,C]2 [E,B,]2 | [A,,B,]4 [A,,A,]4 | %18
w: ~|We would learn of|Je- sus,|
 [B,,G,]2 [B,,F,]2 [B,,G,]2 [B,,B,]2 | [E,B,]6 z2 | [E,B,]2 [E,B,]2 [E,C]2 [E,B,]2 | %21
w: Help us here be-|low,|Fol- low in His|
 [A,,B,]4 [A,,A,]4 | [B,,G,]2 [B,,F,]2 [B,,B,]2 [B,,A,]2 | [E,G,]6 z2 |] %24
w: foot- steps,|Who hath loved us|so.|

